**kern
*staff1
!!pagebreak:original
*I"P1
*clefG2
*k[b-]
*M2/4
8cc\
=1
8cc\L
8cc\
8cc\J
8a/
=2
8a/L
8a/
8a/J
8f/
=3
8f/L
8f/
8f/J
8d/
=4
8d/L
8d/
8d/J
8ddd\
=5
4.e/
8ccc\
=6
4.f/
8ddd\
=7
4.e/
8ccc\
=8
4.f/
=
*-
